packages/katcn/src/icons/svg/coinsBag.svg

<svg width="24" height="24" viewBox="0 0 24 24" fill="none" xmlns="http://www.w3.org/2000/svg">
<path d="M20.6 11.9L17.6 8.1H18C18.6 8.1 19 7.7 19 7.1C19 6.5 18.6 6.1 18 6.1H17.2L17.6 5.3C18 4.6 18 3.8 17.6 3.1C17.2 2.4 16.5 2 15.7 2H8.30001C7.50001 2 6.80001 2.4 6.40001 3.1C6.00001 3.8 6.00001 4.6 6.40001 5.3L6.80001 6.1H6.00001C5.40001 6.1 5.00001 6.5 5.00001 7.1C5.00001 7.7 5.40001 8.1 6.00001 8.1H15L19 13.1C20.1 14.5 20.2 16.3 19.4 17.8C18.6 19.1 17.2 19.9 15.7 19.9H12H8.20001C6.70001 19.9 5.30001 19.1 4.50001 17.8C3.60001 16.3 3.80001 14.4 4.90001 13.1L6.90001 10.6C7.20001 10.2 7.20001 9.5 6.70001 9.2C6.30001 8.9 5.70001 8.9 5.40001 9.4L3.40001 11.9C1.80001 13.9 1.60001 16.7 2.90001 18.9C3.90001 20.8 6.00001 22 8.20001 22H12H15.8C18 22 20.1 20.8 21.2 18.9C22.5 16.6 22.2 13.9 20.6 11.9ZM8.10001 4.3C8.10001 4.2 8.10001 4.1 8.10001 4.1C8.10001 4.1 8.20001 4 8.30001 4H15.7C15.8 4 15.9 4.1 15.9 4.1C15.9 4.1 16 4.2 15.9 4.3L14.9 6.1H9.10001L8.10001 4.3Z" fill="black"/>
</svg>

<svg xmlns="http://www.w3.org/2000/svg" fill="none" viewBox="0 0 24 24"><path fill="#000" d="m20.6 11.9-3-3.8h.4c.6 0 1-.4 1-1s-.4-1-1-1h-.8l.4-.8c.4-.7.4-1.5 0-2.2S16.5 2 15.7 2H8.3c-.8 0-1.5.4-1.9 1.1s-.4 1.5 0 2.2l.4.8H6c-.6 0-1 .4-1 1s.4 1 1 1h9l4 5c1.1 1.4 1.2 3.2.4 4.7-.8 1.3-2.2 2.1-3.7 2.1H8.2c-1.5 0-2.9-.8-3.7-2.1-.9-1.5-.7-3.4.4-4.7l2-2.5c.3-.4.3-1.1-.2-1.4-.4-.3-1-.3-1.3.2l-2 2.5c-1.6 2-1.8 4.8-.5 7C3.9 20.8 6 22 8.2 22h7.6c2.2 0 4.3-1.2 5.4-3.1 1.3-2.3 1-5-.6-7M8.1 4.3v-.2s.1-.1.2-.1h7.4c.1 0 .2.1.2.1s.1.1 0 .2l-1 1.8H9.1z"/></svg>
